humanity-icon-theme/Humanity/actions/22/gtk-info.svg

<?xml version="1.0" encoding="UTF-8" standalone="no"?>
<!-- Created with Inkscape (http://www.inkscape.org/) -->

<svg
   xmlns:svg="http://www.w3.org/2000/svg"
   xmlns="http://www.w3.org/2000/svg"
   xmlns:xlink="http://www.w3.org/1999/xlink"
   version="1.0"
   width="22"
   height="22"
   id="svg2463">
  <defs
     id="defs2465">
    <linearGradient
       id="linearGradient2490-182-124">
      <stop
         id="stop2788"
         style="stop-color:#1f4b6a;stop-opacity:1"
         offset="0" />
      <stop
         id="stop2790"
         style="stop-color:#4083c2;stop-opacity:1"
         offset="1" />
    </linearGradient>
    <linearGradient
       x1="18.379412"
       y1="44.980297"
       x2="18.379412"
       y2="3.0816143"
       id="linearGradient2458"
       xlink:href="#linearGradient2490-182-124"
       gradientUnits="userSpaceOnUse"
       gradientTransform="matrix(0.5160413,0,0,0.5160413,-1.3849489,-1.3850332)" />
    <linearGradient
       id="linearGradient3242-187-536">
      <stop
         id="stop2778"
         style="stop-color:#8badea;stop-opacity:1"
         offset="0" />
      <stop
         id="stop2780"
         style="stop-color:#6396cd;stop-opacity:1"
         offset="0.26238" />
      <stop
         id="stop2782"
         style="stop-color:#3b7caf;stop-opacity:1"
         offset="0.66093999" />
      <stop
         id="stop2784"
         style="stop-color:#194c70;stop-opacity:1"
         offset="1" />
    </linearGradient>
    <radialGradient
       cx="23.895569"
       cy="3.9900031"
       r="20.397499"
       fx="23.895569"
       fy="3.9900031"
       id="radialGradient2456"
       xlink:href="#linearGradient3242-187-536"
       gradientUnits="userSpaceOnUse"
       gradientTransform="matrix(0,1.2316137,-1.6257082,0,17.486623,-29.720825)" />
    <linearGradient
       id="linearGradient4873">
      <stop
         id="stop4875"
         style="stop-color:white;stop-opacity:1"
         offset="0" />
      <stop
         id="stop4877"
         style="stop-color:white;stop-opacity:0"
         offset="1" />
    </linearGradient>
    <linearGradient
       x1="63.397362"
       y1="-12.489107"
       x2="63.397362"
       y2="5.4675598"
       id="linearGradient2453"
       xlink:href="#linearGradient4873"
       gradientUnits="userSpaceOnUse"
       gradientTransform="matrix(1.0862728,0,0,1.0862481,-56.566568,14.813596)" />
  </defs>
  <g
     id="layer1">
    <path
       d="m 11.000044,0.50174288 c -5.7925529,0 -10.49821688,4.70566162 -10.49821688,10.49821412 0,5.792554 4.70566398,10.498219 10.49821688,10.498216 5.79255,0 10.498219,-4.705662 10.498213,-10.498216 0,-5.7925525 -4.705663,-10.49821412 -10.498213,-10.49821412 z"
       id="path2555"
       style="fill:url(#radialGradient2456);fill-opacity:1;stroke:url(#linearGradient2458);stroke-width:1.00365424;stroke-linecap:round;stroke-linejoin:round;stroke-miterlimit:4;stroke-opacity:1;stroke-dasharray:none;stroke-dashoffset:0" />
    <path
       d="m 20.500041,10.999621 c 0,5.246874 -4.253609,9.500336 -9.499879,9.500336 -5.2467525,0 -9.50012,-4.253509 -9.50012,-9.500336 0,-5.2466313 4.2533675,-9.4996624 9.50012,-9.4996624 5.24627,0 9.499879,4.2530311 9.499879,9.4996624 l 0,0 z"
       id="path2463"
       style="opacity:0.4;fill:none;stroke:url(#linearGradient2453);stroke-width:0.99999994;stroke-miterlimit:4;stroke-opacity:1;stroke-dasharray:none" />
    <path
       d="m 8.0000421,9.8512699 c 0.133856,0.3638821 0.284521,0.6588361 0.605452,0.2555271 C 9.0033771,9.8700659 10.336537,8.8324035 10.203138,9.8488179 9.7762611,11.72963 9.2566571,13.590663 8.8593608,15.47727 c -0.4154287,1.033002 0.5279303,1.967395 1.5128652,1.295629 1.046924,-0.431584 1.947798,-1.134561 2.868143,-1.779436 -0.125575,-0.307965 -0.209273,-0.750354 -0.556249,-0.347606 -0.455597,0.20679 -1.450673,1.181728 -1.635539,0.377622 0.382698,-2.03658 1.09175,-3.99777 1.544989,-6.0181111 C 13.010667,8.0764195 12.329465,6.9026595 11.309784,7.6710975 10.08818,8.2031455 9.0665991,9.0722679 8.0000421,9.8512699 z m 4.5337649,-6.849716 c -1.246397,-0.066145 -1.898056,1.9430815 -0.713613,2.4928965 0.96093,0.3940871 2.00721,-0.5914699 1.772459,-1.5762677 -0.07285,-0.5127926 -0.533242,-0.9338783 -1.058845,-0.9166288 l -1e-6,0 z"
       id="text3482"
       style="font-size:40px;font-style:normal;font-variant:normal;font-weight:bold;font-stretch:normal;text-align:start;line-height:100%;writing-mode:lr-tb;text-anchor:start;opacity:0.2;fill:black;fill-opacity:1;stroke:none;font-family:URW Palladio L;-inkscape-font-specification:URW Palladio L Bold" />
    <path
       d="m 8.0000421,10.85127 c 0.133856,0.363882 0.284521,0.658836 0.605452,0.255527 0.397883,-0.236731 1.7310429,-1.2743931 1.5976439,-0.257979 -0.4268769,1.880812 -0.9464809,3.741845 -1.3437772,5.628452 -0.4154287,1.033002 0.5279303,1.967395 1.5128652,1.295629 1.046924,-0.431584 1.947798,-1.134561 2.868143,-1.779436 -0.125575,-0.307965 -0.209273,-0.750354 -0.556249,-0.347606 -0.455597,0.20679 -1.450673,1.181728 -1.635539,0.377622 0.382698,-2.03658 1.09175,-3.99777 1.544989,-6.018111 C 13.010667,9.0764199 12.329465,7.9026595 11.309784,8.6710975 10.08818,9.2031459 9.0665991,10.072268 8.0000421,10.85127 z M 12.533807,4.0015539 c -1.246397,-0.066145 -1.898056,1.9430816 -0.713613,2.4928966 0.96093,0.394086 2.00721,-0.59147 1.772459,-1.5762678 C 13.519801,4.40539 13.059411,3.9843044 12.533808,4.0015539 l -1e-6,0 z"
       id="path3536"
       style="font-size:40px;font-style:normal;font-variant:normal;font-weight:bold;font-stretch:normal;text-align:start;line-height:100%;writing-mode:lr-tb;text-anchor:start;fill:white;fill-opacity:1;stroke:none;font-family:URW Palladio L;-inkscape-font-specification:URW Palladio L Bold" />
  </g>
</svg>

<?xml version="1.0" encoding="UTF-8" standalone="no"?>
<!-- Created with Inkscape (http://www.inkscape.org/) -->
<svg
   xmlns:svg="http://www.w3.org/2000/svg"
   xmlns="http://www.w3.org/2000/svg"
   xmlns:xlink="http://www.w3.org/1999/xlink"
   version="1.0"
   width="22"
   height="22"
   id="svg2463">
  <defs
     id="defs2465">
    <linearGradient
       id="linearGradient2490-182-124">
      <stop
         id="stop2788"
         style="stop-color:#1f4b6a;stop-opacity:1"
         offset="0" />
      <stop
         id="stop2790"
         style="stop-color:#4083c2;stop-opacity:1"
         offset="1" />
    </linearGradient>
    <linearGradient
       x1="18.379412"
       y1="44.980297"
       x2="18.379412"
       y2="3.0816143"
       id="linearGradient2458"
       xlink:href="#linearGradient2490-182-124"
       gradientUnits="userSpaceOnUse"
       gradientTransform="matrix(0.5160413,0,0,0.5160413,-1.3849489,-1.3850332)" />
    <linearGradient
       id="linearGradient3242-187-536">
      <stop
         id="stop2778"
         style="stop-color:#8badea;stop-opacity:1"
         offset="0" />
      <stop
         id="stop2780"
         style="stop-color:#6396cd;stop-opacity:1"
         offset="0.26238" />
      <stop
         id="stop2782"
         style="stop-color:#3b7caf;stop-opacity:1"
         offset="0.66093999" />
      <stop
         id="stop2784"
         style="stop-color:#194c70;stop-opacity:1"
         offset="1" />
    </linearGradient>
    <radialGradient
       cx="23.895569"
       cy="3.9900031"
       r="20.397499"
       fx="23.895569"
       fy="3.9900031"
       id="radialGradient2456"
       xlink:href="#linearGradient3242-187-536"
       gradientUnits="userSpaceOnUse"
       gradientTransform="matrix(0,1.2316137,-1.6257082,0,17.486623,-29.720825)" />
    <linearGradient
       id="linearGradient4873">
      <stop
         id="stop4875"
         style="stop-color:#ffffff;stop-opacity:1"
         offset="0" />
      <stop
         id="stop4877"
         style="stop-color:#ffffff;stop-opacity:0"
         offset="1" />
    </linearGradient>
    <linearGradient
       x1="63.397362"
       y1="-12.489107"
       x2="63.397362"
       y2="5.4675598"
       id="linearGradient2453"
       xlink:href="#linearGradient4873"
       gradientUnits="userSpaceOnUse"
       gradientTransform="matrix(1.0862728,0,0,1.0862481,-56.566568,14.813596)" />
  </defs>
  <g
     id="layer1">
    <path
       d="M 11.000044,0.50174288 C 5.2074911,0.50174288 0.50182712,5.2074045 0.50182712,10.999957 C 0.50182712,16.792511 5.2074911,21.498176 11.000044,21.498173 C 16.792594,21.498173 21.498263,16.792511 21.498257,10.999957 C 21.498257,5.2074045 16.792594,0.50174288 11.000044,0.50174288 z"
       id="path2555"
       style="fill:url(#radialGradient2456);fill-opacity:1;stroke:url(#linearGradient2458);stroke-width:1.00365424;stroke-linecap:round;stroke-linejoin:round;stroke-miterlimit:4;stroke-dasharray:none;stroke-dashoffset:0;stroke-opacity:1" />
    <path
       d="M 20.500041,10.999621 C 20.500041,16.246495 16.246432,20.499957 11.000162,20.499957 C 5.7534095,20.499957 1.500042,16.246448 1.500042,10.999621 C 1.500042,5.7529897 5.7534095,1.4999586 11.000162,1.4999586 C 16.246432,1.4999586 20.500041,5.7529897 20.500041,10.999621 L 20.500041,10.999621 z"
       id="path2463"
       style="opacity:0.4;fill:none;fill-opacity:1;fill-rule:nonzero;stroke:url(#linearGradient2453);stroke-width:0.99999994;stroke-miterlimit:4;stroke-dasharray:none;stroke-opacity:1" />
    <path
       d="M 8.0000421,9.8512699 C 8.1338981,10.215152 8.2845631,10.510106 8.6054941,10.106797 C 9.0033771,9.8700659 10.336537,8.8324035 10.203138,9.8488179 C 9.7762611,11.72963 9.2566571,13.590663 8.8593608,15.47727 C 8.4439321,16.510272 9.3872911,17.444665 10.372226,16.772899 C 11.41915,16.341315 12.320024,15.638338 13.240369,14.993463 C 13.114794,14.685498 13.031096,14.243109 12.68412,14.645857 C 12.228523,14.852647 11.233447,15.827585 11.048581,15.023479 C 11.431279,12.986899 12.140331,11.025709 12.59357,9.0053679 C 13.010667,8.0764195 12.329465,6.9026595 11.309784,7.6710975 C 10.08818,8.2031455 9.0665991,9.0722679 8.0000421,9.8512699 z M 12.533807,3.0015539 C 11.28741,2.9354086 10.635751,4.9446354 11.820194,5.4944504 C 12.781124,5.8885375 13.827404,4.9029805 13.592653,3.9181827 C 13.519801,3.4053901 13.059411,2.9843044 12.533808,3.0015539 L 12.533807,3.0015539 z"
       id="text3482"
       style="font-size:40px;font-style:normal;font-variant:normal;font-weight:bold;font-stretch:normal;text-align:start;line-height:100%;writing-mode:lr-tb;text-anchor:start;opacity:0.2;fill:#000000;fill-opacity:1;stroke:none;stroke-width:1px;stroke-linecap:butt;stroke-linejoin:miter;stroke-opacity:1;font-family:URW Palladio L;-inkscape-font-specification:URW Palladio L Bold" />
    <path
       d="M 8.0000421,10.85127 C 8.1338981,11.215152 8.2845631,11.510106 8.6054941,11.106797 C 9.0033771,10.870066 10.336537,9.8324039 10.203138,10.848818 C 9.7762611,12.72963 9.2566571,14.590663 8.8593608,16.47727 C 8.4439321,17.510272 9.3872911,18.444665 10.372226,17.772899 C 11.41915,17.341315 12.320024,16.638338 13.240369,15.993463 C 13.114794,15.685498 13.031096,15.243109 12.68412,15.645857 C 12.228523,15.852647 11.233447,16.827585 11.048581,16.023479 C 11.431279,13.986899 12.140331,12.025709 12.59357,10.005368 C 13.010667,9.0764199 12.329465,7.9026595 11.309784,8.6710975 C 10.08818,9.2031459 9.0665991,10.072268 8.0000421,10.85127 z M 12.533807,4.0015539 C 11.28741,3.9354086 10.635751,5.9446355 11.820194,6.4944505 C 12.781124,6.8885365 13.827404,5.9029805 13.592653,4.9181827 C 13.519801,4.40539 13.059411,3.9843044 12.533808,4.0015539 L 12.533807,4.0015539 z"
       id="path3536"
       style="font-size:40px;font-style:normal;font-variant:normal;font-weight:bold;font-stretch:normal;text-align:start;line-height:100%;writing-mode:lr-tb;text-anchor:start;fill:#ffffff;fill-opacity:1;stroke:none;stroke-width:1px;stroke-linecap:butt;stroke-linejoin:miter;stroke-opacity:1;font-family:URW Palladio L;-inkscape-font-specification:URW Palladio L Bold" />
  </g>
</svg>
